X: 138030
Q: "Irish Jig."
M: 6/8
L: 1/8
K: G
|: uB |\
vG3 ug2ue | dBG AFD | G3 ug2ue | dBG A2B |\
uB |\
eBe gbg | eBe gbg | eBe g2a | bag agf |\
eBe gbg | eBe g2a | bag agf | e3 d2 |]


